storage/app/icons/phosphoricons/regular/vignette.svg

<svg xmlns="http://www.w3.org/2000/svg" fill="currentColor" viewBox="0 0 256 256"><path d="M216 40H40a16 16 0 0 0-16 16v144a16 16 0 0 0 16 16h176a16 16 0 0 0 16-16V56a16 16 0 0 0-16-16m0 160H40V56h176zM178.05 87.66C164.59 77.56 146.81 72 128 72s-36.59 5.56-50 15.66C63.79 98.27 56 112.6 56 128s7.79 29.73 22 40.34c13.41 10.1 31.19 15.66 50 15.66s36.59-5.56 50.05-15.66C192.21 157.73 200 143.4 200 128s-7.79-29.73-21.95-40.34M128 168c-30.88 0-56-17.94-56-40s25.12-40 56-40 56 17.94 56 40-25.12 40-56 40"/></svg>

<svg xmlns="http://www.w3.org/2000/svg" viewBox="0 0 256 256" fill="currentColor"><path d="M216,40H40A16,16,0,0,0,24,56V200a16,16,0,0,0,16,16H216a16,16,0,0,0,16-16V56A16,16,0,0,0,216,40Zm0,160H40V56H216V200ZM178.05,87.66C164.59,77.56,146.81,72,128,72S91.41,77.56,78,87.66C63.79,98.27,56,112.6,56,128s7.79,29.73,22,40.34C91.41,178.44,109.19,184,128,184s36.59-5.56,50.05-15.66C192.21,157.73,200,143.4,200,128S192.21,98.27,178.05,87.66ZM128,168c-30.88,0-56-17.94-56-40s25.12-40,56-40,56,17.94,56,40S158.88,168,128,168Z"/></svg>
